azure-icons/networking-82-Route-Tables.svg

<svg xmlns="http://www.w3.org/2000/svg" width="18" height="18"><defs><linearGradient id="a" x1="10.56" y1="7.77" x2="10.56" y2="19.24" gradientUnits="userSpaceOnUse"><stop offset=".22" stop-color="#32d4f5"/><stop offset="1" stop-color="#198ab3"/></linearGradient><linearGradient id="b" x1="10.23" y1="1.63" x2="11.07" y2="12.04" gradientUnits="userSpaceOnUse"><stop offset=".22" stop-color="#32d4f5"/><stop offset="1" stop-color="#198ab3"/></linearGradient></defs><path d="M16.23 17.17A1.21 1.21 0 0017.46 16v-.2c-.49-3.86-2.69-7-6.89-7s-6.48 2.66-6.91 7a1.24 1.24 0 001.1 1.36h11.47z" fill="url(#a)"/><path d="M10.57 9.71a3.86 3.86 0 01-2.1-.61l2.08 5.42 2.06-5.39a3.83 3.83 0 01-2.04.58z" fill="#fff" opacity=".8"/><circle cx="10.57" cy="5.84" r="3.87" fill="url(#b)"/><path d="M6 5.88V1a.16.16 0 00-.16-.17H4.57a.17.17 0 00-.18.17v4.71a.18.18 0 01-.17.17H3.1a.12.12 0 01-.1-.12V4.45a.11.11 0 00-.19-.08L.59 6.57a.16.16 0 000 .24L2.79 9A.11.11 0 003 8.93V7.61a.11.11 0 01.1-.11h2.74A.17.17 0 006 7.33V5.88z" fill="#0078d4"/></svg>

<svg id="ec71760d-ea07-41d5-9506-94a0f2677aa9" 
    xmlns="http://www.w3.org/2000/svg" width="18" height="18" viewBox="0 0 18 18">
    <defs>
        <linearGradient id="ec6ad825-6008-44c0-8c46-d31711213827" x1="10.56" y1="7.77" x2="10.56" y2="19.24" gradientUnits="userSpaceOnUse">
            <stop offset="0.22" stop-color="#32d4f5"/>
<stop offset="1" stop-color="#198ab3"/>
        </linearGradient>
        <linearGradient id="b2c2be9e-0a70-4a83-ab8f-bf8022e67924" x1="10.23" y1="1.63" x2="11.07" y2="12.04"  gradientUnits="userSpaceOnUse">
                    <stop offset="0.22" stop-color="#32d4f5"/>
<stop offset="1" stop-color="#198ab3"/>
        </linearGradient>
    </defs>
    <title>Icon-networking-82</title>
    <path d="M16.23,17.17A1.21,1.21,0,0,0,17.46,16V15.8c-.49-3.86-2.69-7-6.89-7s-6.48,2.66-6.91,7a1.24,1.24,0,0,0,1.1,1.36H16.23Z" fill="url(#ec6ad825-6008-44c0-8c46-d31711213827)"/>
    <path d="M10.57,9.71a3.86,3.86,0,0,1-2.1-.61l2.08,5.42,2.06-5.39A3.83,3.83,0,0,1,10.57,9.71Z" fill="#fff" opacity="0.8"/>
    <circle cx="10.57" cy="5.84" r="3.87" fill="url(#b2c2be9e-0a70-4a83-ab8f-bf8022e67924)"/>
    <path d="M6,5.88V1A.16.16,0,0,0,5.84.83H4.57A.17.17,0,0,0,4.39,1V5.71a.18.18,0,0,1-.17.17H3.1A.12.12,0,0,1,3,5.76V4.45a.11.11,0,0,0-.19-.08L.59,6.57a.16.16,0,0,0,0,.24L2.79,9A.11.11,0,0,0,3,8.93V7.61A.11.11,0,0,1,3.1,7.5H5.84A.17.17,0,0,0,6,7.33V5.88Z" fill="#0078d4"/>
</svg>
